X:122
T: Von der Wanderschaft ... (1-50), S. 124
N: K1096
O: Luxemburg
S: KINTZELE, Guillaume: An der Ucht, Bd. 1, Luxemburg 1926]
N: in der Quelle mit einer 2. Stimme versehen
R: Rchkehr, Tod der Braut]
M: 3/4
L: 1/8
K: C
EF | G3AG^F | G2z2
EG | c2d2cB | A4z2 |
ccBBAA | G4
Gc | e2d2AB | c4z2 |
ccBBAA | G4
Gc | e2d2AB | c4

@@@ Tune index: 8176
